X: 12
T: The Bear is Pointing at the Sun
N: Derived from pawnee12.krn
O: Oklahoma, U.S.A.
N: from Pawnee Music by Frances Densmore, 1926
Z: transcribed to **kern format by David Huron, August 2000
C: Skidi and Chaui Bands, 1919
L: 1/8
M: 2/4
Q: 1/4=88
K: C clef=bass
%%linebreak <none>
E E/ E/ E E[M:3/4] | 
E D C C C z | 
E E/ D/ E DC2 | 
D C A, A, A, A,3// E//[M:2/4] | 
(E/ C) C/ (C/ A,3/) | 
A, A, A, (A,/ G,/)[M:3/4] | 
A, A, B, A, A,3/ E/[M:2/4] | 
E> E E3/ E/[M:3/4] | 
E DC2-C3/ E/[M:2/4] | 
(E/ C) C/ (C/ A,3/)[M:3/4] | 
C C A, A, A,3/ E/[M:2/4] | 
(E/ C) C/ (C/ A,3/) | 
A, A, A, (A,/ G,/) | 
A, A, B, A, | 
A,4 |]  



